!!!COM: Peter Cornelius
!!!CNT: Deutsch
!!!TXO: Deutsch
!!!OTL: Trauer
!!!LYR: Cornelius
!!!OPR: Trauer und Trost
!!!OPS: Op.3
!!!ONM: No. 1
!!!ENC: Ben Fuhrman
!!!YOR: CD Sheet Music, Mid-Romantic German Lieder: The Ultimate Collection.
!!!YOR: CD Sheet Music, LLC 2001
!!!ODT: 1854
!!NB: Only vocal melody encoded.
!!NB: First instance of melodic material only encoded.
!!created: 2/1/10 3:27PM
!!proofed and posted: 2/1/10 3:28PM
**kern	**silbe
*clef G2	*
*k[f#]	*
*M2/4	*
*MM[Nicht zu langsam]	*
=9	=9
4r	.
{4b	{Ich
=10	=10
4.b	wand-
8a	-le
=11	=11
(4.g	ein
8cc)	|
=12	=12
4cc}	-sam,}
4r	.
=13	=13
4r	.
{4cc	{mein
=14	=14
4.cc	Weg
8a	ist
=15	=15
4.g#}	lang;}
8r	.
=16	=16
2r	.
=17	=17
8r	.
{8b	{zum
8a#	Him-
8f#	-mel
=18	=18
4b	schau'
8a#	ich
8a#	hin-
=19	=19
4.b	-auf
8g	so
=20	=20
4.fn}	bang.}
8r	.
!! Rest to measure 25
=25	=25
4r	.
{4b	{Kein
=26	=26
4.b	Stern
8a	von
=27	=27
(4.g	O-
8cc)	|
=28	=28
4cc}	-ben}
4r	.
=29	=29
4r	.
{4cc	{blickt
=30	=30
4.cc	nie-
8a	-der-
=31	=31
2g#}	-wa2rts,}
=32	=32
2r	.
=33	=33
{4b	{glanz-
8a#	-los
8f#	der
=34	=34
4b	Him-
8a#	-mel,
8r	.
=35	=35
4b	dun-
8gn	-kel
8gn	mein
=36	=36
4.fn}	Herz.}
8r	.
!! Rest to measure 40
=40	=40
4r	.
8r	.
{8b	{Mein
=41	=41
4cc	Herz
8cc	und
8cc	der
=42	=42
4cc	Him-
4a	-mel
=43	=43
8r	.
8a	hat
8b	glei-
8cc	-che
=44	=44
[2dd	Not,
=45	=45
4.dd]}	|}
{8b-	{sein
=46	=46
2ee-	Glanz
=47	=47
4cc-	ist
4a-	er-
=48	=48
(4.een	-lo-
8cc#)	|
=49	=49
4an}	-schen,}
4r	.
=50	=50
4r	.
{4cc	{mein
=51	=51
[2a	Lieb
=52	=52
4a]	|
4b	ist
=53	=53
[2g	tot.
=54	=54
2g_	|
=55	=55
2g_	|
=56	=56
4g]}	|}
4r	.
==	==
*-	*-
